X: 954
T: Tallahassee
C:Bill Monroe
B: jims roots
M:C|
L:1/8
Q: 1/4=100
K:A
V:1 
a4e4 | c4A4 | E4 C4 | A,8 |"A"z8|z6Ac ||
|:"A"e2 ef ecAB | cd (3efg a2 Ac | e2 ef edce | aece AcAc |
ddcc BBAA | "E"GGEE FFGG | "A"AAAA AAAA |[1 AAAA AAAc :|[2 AAAA AD E2 ||
|:Bc3- cBcd | e7 f/g/ | a4- abaf | e6A2 | Bc3- cecB |
A2E2 FEF2 | FA6 B |[1 A4- AD E2 :|[2 A6 Ac |:ddcc BBAA |
"E"GGEE FFGG | "A"AAAA AAAA |[1AAAA AAAc :|[2 AAAA AAAA ||
|:A,8 | C^B, C6 | E^D E6 | [F/A/][A7A] | Bc3- cecB | A2E2 FEF2 | FA6B | A8:|
|:ddcc BBAA | "E"GGEE FFGG |[1 "A"AAAA AAAA | AAAA AAAc:|[2 "A"AAAA cccc|eeee a2z2|]
% abcbook-tune_id 6298c2977512c88b02506c7e


% abcbook-boost 0
% abcbook-tablature 
% abcbook-transpose 
% abcbook-lastupdated 1654178455858
% abcbook-soundfonts 
% abcbook-repeats 1


